svg/UnitedNations-Flags/flag-ug.svg

<?xml version="1.0" encoding="UTF-8" standalone="no"?>
<svg height="256" id="svg2" inkscape:output_extension="org.inkscape.output.svg.inkscape" inkscape:version="0.46" sodipodi:docname="Flag_of_Uganda.svg" sodipodi:version="0.32" version="1.0" width="256" xmlns="http://www.w3.org/2000/svg" xmlns:cc="http://creativecommons.org/ns#" xmlns:dc="http://purl.org/dc/elements/1.1/" xmlns:inkscape="http://www.inkscape.org/namespaces/inkscape" xmlns:rdf="http://www.w3.org/1999/02/22-rdf-syntax-ns#" xmlns:sodipodi="http://sodipodi.sourceforge.net/DTD/sodipodi-0.dtd" xmlns:svg="http://www.w3.org/2000/svg">
  <metadata>
    <rdf:RDF xmlns:cc="http://web.resource.org/cc/" xmlns:dc="http://purl.org/dc/elements/1.1/" xmlns:rdf="http://www.w3.org/1999/02/22-rdf-syntax-ns#">
      <cc:Work rdf:about="">
        <dc:title></dc:title>
        <dc:description></dc:description>
        <dc:subject>
          <rdf:Bag>
            <rdf:li>unsorted</rdf:li>
          </rdf:Bag>
        </dc:subject>
        <dc:publisher>
          <cc:Agent rdf:about="http://www.openclipart.org/">
            <dc:title>Open Clip Art Library, Source: Wikimedia Commons, Source: Wikimedia Commons, Source: Wikimedia Commons, Source: Wikimedia Commons</dc:title>
          </cc:Agent>
        </dc:publisher>
        <dc:creator>
          <cc:Agent>
            <dc:title></dc:title>
          </cc:Agent>
        </dc:creator>
        <dc:rights>
          <cc:Agent>
            <dc:title></dc:title>
          </cc:Agent>
        </dc:rights>
        <dc:date></dc:date>
        <dc:format>image/svg+xml</dc:format>
        <dc:type rdf:resource="http://purl.org/dc/dcmitype/StillImage"/>
        <cc:license rdf:resource="http://en.wikipedia.org/wiki/Public_domain"/>
        <dc:language>en</dc:language>
      </cc:Work>
    </rdf:RDF>
  </metadata>
  <defs id="defs47">
    <inkscape:perspective id="perspective51" inkscape:persp3d-origin="450 : 200 : 1" inkscape:vp_x="0 : 300 : 1" inkscape:vp_y="0 : 1000 : 0" inkscape:vp_z="900 : 300 : 1" sodipodi:type="inkscape:persp3d"/>
  </defs>
  <sodipodi:namedview bordercolor="#666666" borderopacity="1.0" gridtolerance="10.0" guidetolerance="10.0" id="base" inkscape:current-layer="svg2" inkscape:cx="450" inkscape:cy="300" inkscape:pageopacity="0.0" inkscape:pageshadow="2" inkscape:window-height="717" inkscape:window-width="901" inkscape:window-x="36" inkscape:window-y="189" inkscape:zoom="0.62111111" objecttolerance="10.0" pagecolor="#ffffff" showgrid="false"/>
  <desc id="desc4">flag of Uganda</desc>
  <!--
	from http://commons.wikimedia.org/wiki/Image:Flag_of_Uganda.svg
	this file is in the public domain
-->
  <rect height="170.66667" id="rect6" style="fill:#000000" width="256" x="-2.7755576e-17" y="42.333328"/>
  <rect height="28.444445" id="rect8" style="fill:#ffe700" width="256" x="-2.7755576e-17" y="70.777756"/>
  <rect height="28.444445" id="rect10" style="fill:#de3908" width="256" x="-2.7755576e-17" y="99.222214"/>
  <rect height="28.444445" id="rect12" style="fill:#ffe700" width="256" x="-2.7755576e-17" y="156.11107"/>
  <rect height="28.444445" id="rect14" style="fill:#de3908" width="256" x="-2.7755576e-17" y="184.55553"/>
  <path d="M 154.57022,127.66663 C 154.57022,142.34091 142.67437,154.23675 128.0001,154.23675 C 113.32582,154.23675 101.42997,142.34091 101.42997,127.66663 C 101.42997,112.99236 113.32582,101.09651 128.0001,101.09651 C 142.67437,101.09651 154.57022,112.99236 154.57022,127.66663 L 154.57022,127.66663 z" id="path16" style="fill:#fffdff;stroke:#000000;stroke-width:0.23104455"/>
  <path d="M 123.31244,107.29776 L 121.58746,104.12043 C 122.2531,103.45479 123.37298,102.94026 125.15826,102.94026 C 125.15826,103.06132 124.97666,106.42025 124.97666,106.42025 L 123.31244,107.29776 z" id="path18" style="fill:#de3108;stroke:#000000;stroke-width:0.28444445"/>
  <path d="M 124.97666,106.45052 L 125.21879,102.94026 C 125.21879,102.94026 128.78958,102.72862 130.7262,105.05847 C 130.75647,105.02821 128.81985,107.78179 128.81985,107.78179 L 124.97666,106.45052 z" id="path20" style="fill:#ffe700;stroke:#000000;stroke-width:0.28444445"/>
  <path d="M 128.88038,107.75153 L 130.6354,105.02821 C 131.81557,106.26892 132.29961,107.14642 132.48121,108.47793 C 132.51148,108.5082 129.69736,109.17384 129.69736,109.14357 C 129.69736,109.1133 128.91065,107.78179 128.88038,107.75153 z" id="path22" style="fill:#de3108;stroke:#000000;stroke-width:0.28444445"/>
  <path d="M 124.18995,152.71857 C 124.18995,152.71857 127.48834,148.93591 133.90352,149.75311 C 132.93522,148.17947 129.81842,148.36107 129.81842,148.36107 C 129.81842,148.36107 128.85012,141.00785 129.60656,140.64465 C 130.363,140.28144 133.57059,140.67491 133.57059,140.67491 C 133.99409,140.67491 134.7205,139.525 134.14566,138.79883 C 133.57059,138.07243 131.87611,135.28857 132.57201,134.74377 C 133.26815,134.1992 137.05058,135.04644 137.05058,135.04644 L 126.3687,121.36883 C 126.3687,121.36883 125.27933,116.22462 127.45807,113.7432 C 130.09083,111.56445 129.81842,109.2041 129.72762,109.23437 C 129.36442,106.84375 125.73333,105.11878 123.28218,107.32802 C 121.8296,109.08304 122.79791,110.41454 122.79791,110.41454 C 122.79791,110.41454 118.98521,111.44339 118.83387,112.10903 C 118.68254,112.7749 123.13084,111.98819 123.13084,111.98819 L 122.70711,115.04445 C 122.70711,115.04445 114.05264,122.91198 120.67969,129.72063 C 120.74022,129.69036 120.89156,129.41796 120.89156,129.41796 C 120.89156,129.41796 123.22164,132.29285 125.67256,132.92822 C 127.97238,135.28857 127.76074,134.92537 127.76074,134.92537 C 127.76074,134.92537 128.21451,138.6475 127.79101,139.37367 C 127.21594,139.19207 121.34556,138.98043 120.46782,139.31314 C 119.68112,139.55527 116.65512,139.40394 117.41156,144.33651 C 117.9864,143.005 118.50094,141.82482 118.50094,141.82482 C 118.50094,141.82482 118.41014,143.6101 119.13654,144.24571 C 119.01548,142.3694 119.83245,141.09865 119.83245,141.09865 C 119.83245,141.09865 119.98378,143.15633 120.43756,143.45877 C 120.89156,143.76144 120.89156,140.13011 123.40324,140.43278 C 125.9147,140.73545 127.73048,140.64465 127.73048,140.64465 C 127.73048,140.64465 128.57772,147.75573 128.30531,148.4216 C 126.48953,147.99787 122.16253,148.60321 121.89013,149.69258 C 124.43185,149.54125 125.61226,149.84368 125.61226,149.84368 C 125.61226,149.84368 123.55458,151.65946 124.18995,152.71857 z" id="path24" style="fill:#000000;stroke:#000000;stroke-width:0.28444445"/>
  <path d="M 125.21001,113.91672 C 125.21001,113.91672 118.91266,120.85776 121.62951,126.16924 C 121.77415,125.42852 121.71107,124.96319 121.80187,124.99346 C 121.65054,124.90266 122.5828,125.63253 122.51187,125.49043 C 122.53174,125.10644 122.22792,124.28346 122.22792,124.28346 C 122.51187,124.35439 122.79606,124.42555 123.08001,124.49648 C 122.91435,124.18873 122.74846,123.88121 122.5828,123.57346 C 122.98528,123.62082 123.38753,123.66796 123.79001,123.71532 C 123.79001,123.71532 123.36397,122.57927 123.50606,122.57927 C 123.64792,122.57927 124.50001,122.6502 124.50001,122.6502 C 122.70919,119.43637 124.39858,116.76735 125.21001,113.91672 z" id="path26" style="fill:#9ca69c;stroke:#9ca69c;stroke-width:0.28444445"/>
  <path d="M 127.39754,107.96339 C 127.39754,107.96339 127.73048,110.35401 126.42923,111.04992 C 126.21737,111.20125 125.40039,111.47365 125.52146,111.95792 C 125.67279,112.62356 126.03576,112.5025 126.5503,112.38143 C 127.91184,112.13929 129.48549,109.23437 127.39754,107.96339 z" id="path28" style="fill:#9ca69c;stroke:#9ca69c;stroke-width:0.28444445"/>
  <path d="M 125.06749,110.02116 C 125.06749,110.30527 124.83717,110.53558 124.55306,110.53558 C 124.26895,110.53558 124.03863,110.30527 124.03863,110.02116 C 124.03863,109.73704 124.26895,109.50673 124.55306,109.50673 C 124.83717,109.50673 125.06749,109.73704 125.06749,110.02116 z" id="path30" style="fill:#ffffff"/>
  <path d="M 123.04004,112.01823 C 122.70711,112.29063 120.95209,114.10641 122.67684,114.77205 C 124.46235,114.28778 123.97808,113.95507 124.37155,113.5616 C 124.38172,112.74463 123.48388,112.53276 123.04004,112.01823 z" id="path32" style="fill:#de3108;stroke:#000000;stroke-width:0.28444445"/>
  <path d="M 126.85274,129.17606 C 126.76194,129.56953 126.3687,131.02187 126.91327,132.14151 C 128.42638,131.50614 129.12229,131.68751 129.63682,132.02045 C 128.39635,131.02187 127.91208,130.59814 126.85274,129.17606 z" id="path34" style="fill:#9ca69c;stroke:#9ca69c;stroke-width:0.28444445"/>
  <path d="M 129.45522,136.04501 L 129.54602,139.4342 C 129.54602,139.4342 130.7262,139.64607 131.27077,139.4342 C 131.81557,139.22234 131.2405,137.07385 129.45522,136.04501 z" id="path36" style="fill:#ffffff;stroke:#ffffff;stroke-width:0.28444445"/>
  <path d="M 138.01889,136.46875 C 138.01889,136.46875 135.84014,131.20347 130.2722,129.87196 C 124.70426,128.54045 125.43043,122.60954 125.88443,122.24634 C 126.12657,121.7318 126.30817,120.94509 127.91184,121.70176 C 129.51576,122.4582 136.89925,126.1801 137.95836,126.3617 C 139.01746,126.5433 138.10969,136.58981 138.01889,136.46875 z" id="path38" style="fill:#9ca69c;stroke:#000000;stroke-width:0.28444445"/>
  <path d="M 132.72335,129.8417 C 132.63255,129.90223 140.16737,134.28976 137.89782,138.07243 C 140.04654,136.65012 139.3504,134.16893 139.3504,134.16893 C 139.3504,134.16893 141.10541,138.7383 136.83872,140.97758 C 137.29272,141.37105 137.59539,141.28002 137.59539,141.28002 L 136.86898,142.00642 C 136.86898,142.00642 136.53605,142.551 139.41093,141.15895 C 138.624,141.79456 138.56369,142.24833 138.56369,142.24833 C 138.56369,142.24833 138.77533,142.85366 140.65164,141.21949 C 139.13853,142.85366 138.8056,143.7009 138.8056,143.67064 C 142.8907,143.30744 151.7873,130.0233 135.99148,126.0893 C 136.83895,126.96704 136.71765,126.84597 136.71765,126.84597 L 132.72335,129.8417 z" id="path40" style="fill:#de3108;stroke:#000000;stroke-width:0.28444445"/>
  <path d="M 133.05628,128.54045 C 134.08513,129.26663 134.4481,129.50876 134.56916,129.87196 C 133.63112,129.66033 132.78388,129.72063 132.78388,129.72063 C 132.78388,129.72063 130.75647,127.78401 130.39326,127.63268 C 130.12086,127.63268 128.54745,126.6341 128.54745,126.6341 C 127.76074,126.24064 127.03457,123.51731 129.93949,124.30402 C 132.93499,125.7261 133.35872,125.8474 133.35872,125.8474 C 134.54906,126.22053 135.73917,126.5939 136.92952,126.96704 C 137.61549,127.73364 138.30123,128.50025 138.9872,129.26686 C 138.9872,129.26686 135.32584,127.45108 134.87183,127.42081 C 135.87041,128.23779 136.44548,129.35743 136.44548,129.35743 C 135.2854,129.02449 134.27689,128.72206 133.05628,128.54045 z" id="path42" style="fill:#ffffff;stroke:#000000;stroke-width:0.28444445"/>
  <path d="M 118.80361,112.29063 C 118.80361,112.29063 122.31387,111.44339 122.73737,111.56445" id="path44" style="stroke:#ffffff;stroke-width:0.28444445"/>
</svg>

<svg xmlns="http://www.w3.org/2000/svg" viewBox="0 0 256 256"><path d="m0 42.33h256v170.67h-256z"/><path fill="#ffe700" d="m0 70.778h256v28.444h-256z"/><path fill="#de3908" d="m0 99.22h256v28.445h-256z"/><path fill="#ffe700" d="m0 156.11h256v28.445h-256z"/><path fill="#de3908" d="m0 184.56h256v28.444h-256z"/><g stroke="#000"><path d="m154.57 127.67c0 14.674-11.896 26.57-26.57 26.57-14.674 0-26.57-11.896-26.57-26.57 0-14.674 11.896-26.57 26.57-26.57 14.674 0 26.57 11.896 26.57 26.57z" fill="#fffdff" stroke-width=".231"/><g stroke-width=".284"><path d="m123.31 107.3l-1.725-3.177c.666-.666 1.786-1.18 3.571-1.18 0 .121-.182 3.48-.182 3.48l-1.664.878z" fill="#de3108"/><path d="m124.98 106.45l.242-3.51c0 0 3.571-.212 5.507 2.118.03-.03-1.906 2.723-1.906 2.723l-3.843-1.331z" fill="#ffe700"/><path d="m128.88 107.75l1.755-2.723c1.18 1.241 1.664 2.118 1.846 3.45.03.03-2.784.696-2.784.666 0-.03-.787-1.362-.817-1.392z" fill="#de3108"/><path d="m124.19 152.72c0 0 3.298-3.783 9.714-2.965-.968-1.574-4.085-1.392-4.085-1.392 0 0-.968-7.353-.212-7.716.756-.363 3.964.03 3.964.03.423 0 1.15-1.15.575-1.876-.575-.726-2.27-3.51-1.574-4.055.696-.545 4.479.303 4.479.303l-10.682-13.678c0 0-1.089-5.144 1.089-7.626 2.633-2.179 2.36-4.539 2.27-4.509-.363-2.391-3.994-4.116-6.445-1.906-1.453 1.755-.484 3.087-.484 3.087 0 0-3.813 1.029-3.964 1.694-.151.666 4.297-.121 4.297-.121l-.424 3.056c0 0-8.654 7.868-2.027 14.676.061-.03.212-.303.212-.303 0 0 2.33 2.875 4.781 3.51 2.3 2.36 2.088 1.997 2.088 1.997 0 0 .454 3.722.03 4.448-.575-.182-6.445-.393-7.323-.061-.787.242-3.813.091-3.056 5.02.575-1.332 1.089-2.512 1.089-2.512 0 0-.091 1.785.636 2.421-.121-1.876.696-3.147.696-3.147 0 0 .151 2.058.605 2.36.454.303.454-3.329 2.966-3.03 2.511.303 4.327.212 4.327.212 0 0 .847 7.111.575 7.777-1.816-.424-6.143.182-6.415 1.271 2.542-.151 3.722.151 3.722.151 0 0-2.058 1.816-1.422 2.875z"/></g></g><g fill="#9ca69c" stroke="#9ca69c" stroke-width=".284"><path d="m125.21 113.92c0 0-6.297 6.941-3.581 12.253.145-.741.082-1.206.172-1.176-.151-.091.781.639.71.497.02-.384-.284-1.207-.284-1.207.284.071.568.142.852.213-.166-.308-.332-.615-.497-.923.402.047.805.094 1.207.142 0 0-.426-1.136-.284-1.136.142 0 .994.071.994.071-1.791-3.214-.101-5.883.71-8.733z"/><path d="m127.4 107.96c0 0 .333 2.391-.968 3.087-.212.151-1.029.424-.908.908.151.666.514.545 1.029.424 1.362-.242 2.935-3.147.847-4.418z"/></g><path d="m125.07 110.02c0 .284-.23.514-.514.514-.284 0-.514-.23-.514-.514 0-.284.23-.514.514-.514.284 0 .514.23.514.514" fill="#fff"/><g stroke-width=".284"><path d="m123.04 112.02c-.333.272-2.088 2.088-.363 2.754 1.786-.484 1.301-.817 1.695-1.21.001-.817-.888-1.029-1.332-1.543z" fill="#de3108" stroke="#000"/><path d="m126.85 129.18c-.091.393-.484 1.846.061 2.965 1.513-.635 2.209-.454 2.724-.121-1.24-.999-1.725-1.422-2.784-2.844z" fill="#9ca69c" stroke="#9ca69c"/><path d="m129.46 136.05l.091 3.389c0 0 1.18.212 1.725 0 .545-.212-.03-2.36-1.816-3.389z" fill="#fff" stroke="#fff"/><g stroke="#000"><path d="m138.02 136.47c0 0-2.179-5.265-7.747-6.597-5.568-1.332-4.842-7.262-4.388-7.626.242-.515.424-1.301 2.027-.545 1.604.756 8.987 4.478 10.05 4.66 1.059.182.151 10.228.061 10.11z" fill="#9ca69c"/><path d="m132.72 129.84c-.091.061 7.444 4.448 5.174 8.231 2.149-1.422 1.453-3.904 1.453-3.904 0 0 1.755 4.569-2.512 6.809.454.393.757.302.757.302l-.726.726c0 0-.333.545 2.542-.847-.787.636-.847 1.089-.847 1.089 0 0 .212.605 2.088-1.029-1.513 1.634-1.846 2.481-1.846 2.451 4.085-.363 12.982-13.647-2.814-17.581.847.878.726.757.726.757l-3.994 2.996z" fill="#de3108"/><path d="m133.06 128.54c1.029.726 1.392.968 1.513 1.332-.938-.212-1.785-.151-1.785-.151 0 0-2.027-1.937-2.391-2.088-.272 0-1.846-.999-1.846-.999-.787-.393-1.513-3.117 1.392-2.33 2.995 1.422 3.419 1.543 3.419 1.543 1.19.373 2.38.747 3.571 1.12.686.767 1.372 1.533 2.058 2.3 0 0-3.661-1.816-4.115-1.846.999.817 1.574 1.937 1.574 1.937-1.16-.333-2.169-.635-3.389-.817z" fill="#fff"/></g><path d="m118.8 112.29c0 0 3.51-.847 3.934-.726" stroke="#fff"/></g></svg>
